images/q3inp2.svg

<svg width="270" height="175" viewBox="0 0 270 175" fill="none" xmlns="http://www.w3.org/2000/svg">
<rect width="270" height="175" fill="white"/>
<path d="M154.402 104.169C154.823 103.256 155.315 102.308 155.455 102.097V102.062C155.596 101.851 156.333 101.641 157.036 101.641C158.3 101.606 158.37 101.676 158.827 103.291C159.108 104.204 159.424 105.117 159.564 105.328C159.705 105.504 160.653 108.138 161.671 111.123C162.725 114.108 163.884 117.514 164.305 118.673C164.691 119.832 165.113 120.921 165.218 121.131C165.359 121.307 165.71 122.36 166.026 123.414C166.377 124.468 166.834 125.907 167.115 126.575C167.395 127.242 168.098 129.208 168.73 130.964C169.362 132.685 170.064 134.792 170.345 135.6C170.591 136.443 170.697 137.04 170.521 136.97C170.381 136.864 168.765 136.408 166.939 135.881C165.113 135.389 162.76 134.792 159.915 134.125L159.072 135.354C158.616 136.021 157.281 137.918 156.158 139.568C155.034 141.219 153.98 142.624 153.769 142.659C153.559 142.729 153.208 142.167 152.962 141.43C152.681 140.692 152.189 139.217 151.838 138.164L151.838 138.164C151.487 137.11 150.609 134.652 149.906 132.72C149.204 130.789 148.326 128.331 147.975 127.277C147.624 126.223 146.676 123.519 145.868 121.307C145.06 119.094 143.761 115.442 142.988 113.23C142.216 111.017 141.478 108.875 141.373 108.524C141.127 107.857 141.162 107.857 142.251 108.419C142.883 108.735 143.726 109.016 144.112 109.016C144.498 109.016 145.201 108.594 145.657 108.032C146.114 107.505 146.886 106.663 148.151 105.153L150.082 105.714C151.136 106.03 152.365 106.171 152.786 106.066C153.313 105.925 153.875 105.223 154.402 104.169Z" fill="url(#paint0_linear_311_254)"/>
<path d="M111.417 104.451C111.733 103.397 112.154 102.308 112.295 102.098V102.063C112.435 101.852 113.173 101.641 113.91 101.641C115.245 101.641 115.35 101.711 115.842 103.116C116.123 103.959 116.755 105.012 117.247 105.504C118.16 106.382 118.16 106.382 122.725 105.329L124.27 107.155C125.218 108.243 126.132 109.016 126.553 109.016C126.939 109.016 127.712 108.77 128.309 108.489C129.292 107.998 129.362 107.998 129.362 108.559C129.362 108.911 129.257 109.332 129.117 109.508C128.976 109.683 128.52 110.772 128.098 111.966C127.712 113.125 126.869 115.618 126.237 117.444C125.605 119.27 124.235 123.239 123.146 126.224C122.093 129.209 121.11 131.983 120.934 132.37C120.758 132.756 119.88 135.284 118.967 137.988C118.054 140.693 117.247 142.975 117.141 143.081C117.071 143.186 116.931 143.081 116.86 142.905C116.79 142.694 115.772 141.219 114.613 139.569C113.489 137.918 112.084 135.987 111.557 135.249C110.89 134.371 110.398 134.02 110.047 134.161C109.766 134.266 108.116 134.758 106.36 135.249C104.604 135.706 102.602 136.303 101.9 136.513C101.162 136.759 100.495 136.865 100.39 136.759C100.249 136.654 100.846 134.617 101.654 132.194C102.462 129.771 103.305 127.313 103.55 126.751C103.796 126.189 104.499 124.257 105.06 122.536C105.657 120.816 106.887 117.304 107.765 114.81C108.643 112.282 109.696 109.367 110.082 108.314C110.469 107.26 111.066 105.504 111.417 104.451Z" fill="url(#paint1_linear_311_254)"/>
<path d="M131.119 32.4583C131.821 32.4583 132.593 32.072 133.507 31.2291H133.471C134.209 30.5619 135.017 30 135.227 30C135.473 30 136.351 30.5619 137.159 31.2291C138.107 32.0017 139.055 32.4583 139.617 32.4583C140.179 32.4583 141.233 32.1422 142.005 31.7559C142.778 31.3696 143.621 31.0535 143.831 31.0535C144.077 31.0535 145.025 31.8964 147.519 34.741L149.766 34.2493C150.996 34.0035 152.225 33.863 152.435 34.0035C152.681 34.1088 153.278 35.0921 153.77 36.1457C154.367 37.4802 154.894 38.1474 155.421 38.2528C155.877 38.3581 157.106 38.4635 160.056 38.604L160.478 40.7111C160.759 41.9753 161.18 42.9937 161.566 43.2747C161.917 43.5205 162.585 43.8015 163.076 43.9068C163.568 44.0122 164.411 44.1878 165.008 44.3282C165.991 44.5741 166.061 44.7145 166.167 46.5056C166.202 47.5591 166.307 48.7882 166.413 49.2097C166.518 49.7716 167.22 50.3334 168.625 51.0007C170.311 51.8084 170.627 52.1245 170.557 52.8268C170.521 53.3185 170.381 54.4774 169.995 57.2166L173.787 60.5177L171.68 64.8021L172.383 66.0313C172.769 66.7336 173.436 67.6467 173.893 68.033C174.314 68.4544 174.665 68.911 174.665 69.0514C174.665 69.227 174.033 70.1752 173.261 71.1585C172.453 72.177 171.821 73.2656 171.856 73.5466C171.856 73.8275 172.242 74.8108 172.734 75.759C173.226 76.6721 173.577 77.6203 173.542 77.9012C173.471 78.1471 172.734 78.9197 171.856 79.5869C170.381 80.7107 170.276 80.8863 170.311 82.3613C170.346 83.2041 170.486 84.4683 170.627 85.1356C170.873 86.3296 170.838 86.3647 169.363 86.9969C168.52 87.348 167.466 87.9802 167.01 88.4016C166.342 89.0337 166.237 89.5254 166.237 91.3515C166.237 93.3181 166.132 93.5991 165.464 93.88C165.008 94.0907 164.06 94.3014 163.357 94.4068C162.62 94.5473 161.707 94.9687 161.32 95.3901C160.969 95.8466 160.583 96.9002 160.478 97.7781C160.372 98.6561 160.091 99.5692 159.845 99.7799C159.541 100.084 158.862 100.154 157.809 99.9906C156.65 99.815 155.982 99.9204 155.28 100.342C154.718 100.658 153.946 101.676 153.559 102.589C153.138 103.538 152.611 104.38 152.4 104.521C152.19 104.626 151.241 104.521 150.258 104.205C149.31 103.924 148.151 103.783 147.73 103.889C147.273 103.994 146.395 104.802 145.798 105.645C145.166 106.523 144.499 107.295 144.288 107.401C144.077 107.506 143.199 107.19 142.286 106.698C141.338 106.242 140.249 105.855 139.828 105.855C139.371 105.82 138.318 106.382 137.44 107.084C136.562 107.752 135.649 108.314 135.438 108.314C135.192 108.314 134.314 107.752 133.507 107.084C132.558 106.312 131.61 105.855 131.048 105.855C130.486 105.855 129.327 106.277 126.834 107.787L125.043 105.785C124.025 104.661 122.971 103.748 122.69 103.748C122.409 103.748 121.32 103.994 120.337 104.275C118.862 104.696 118.406 104.696 118.16 104.345C117.984 104.135 117.493 103.151 117.036 102.203C116.509 101.114 115.877 100.342 115.315 100.166C114.824 99.9906 113.805 99.9204 113.032 99.9906C112.26 100.096 111.382 100.061 111.101 99.8852C110.82 99.7448 110.469 98.8317 110.328 97.8133C110.153 96.7597 109.766 95.7413 109.345 95.3199C108.959 94.9336 108.046 94.5122 107.343 94.4068C106.606 94.3014 105.658 94.0907 105.236 93.88C104.534 93.5991 104.428 93.3181 104.499 91.7027C104.534 90.7194 104.464 89.5254 104.323 89.0688C104.147 88.5772 103.41 87.9802 102.146 87.4183C101.092 86.9266 100.144 86.3998 100.039 86.1891C99.9333 85.9784 100.109 85.0302 100.39 84.082C100.671 83.0987 100.811 82.0452 100.706 81.694C100.565 81.3779 99.6874 80.3595 96.878 77.8661L97.8964 75.9697C98.5988 74.6704 98.8446 73.7924 98.7041 73.1954C98.5988 72.7037 97.9315 71.6502 97.2643 70.8425C96.5619 69.9996 96 69.2622 96 69.1568C96 69.0514 96.6321 68.2437 97.4047 67.3307C98.2476 66.3473 98.8095 65.2938 98.8095 64.767C98.8095 64.2754 98.4232 63.2569 97.9315 62.4843C97.475 61.7117 97.0536 60.8689 97.0536 60.6582C97.0536 60.4124 97.7208 59.71 98.5637 59.113C99.3714 58.516 100.214 57.7083 100.46 57.2868C100.776 56.6898 100.776 56.0928 100.355 54.5125C100.074 53.3887 99.9333 52.3001 100.039 52.1245C100.144 51.9489 101.092 51.387 102.146 50.8953C103.199 50.4037 104.183 49.7364 104.323 49.4204C104.464 49.0692 104.569 47.84 104.604 44.6092L106.711 44.1175C107.87 43.8717 109.029 43.4503 109.275 43.2396C109.521 42.9937 109.872 42.2563 110.047 41.589C110.188 40.9218 110.434 39.9385 110.539 39.4117C110.75 38.4635 110.855 38.4284 112.857 38.4284C114.016 38.4284 115.28 38.2528 115.666 38.0772C116.053 37.9016 116.755 36.8481 117.247 35.7945C117.738 34.7058 118.37 33.863 118.651 33.863C118.932 33.863 119.951 34.0737 120.899 34.3195C122.304 34.6707 122.795 34.6707 123.463 34.2844C123.919 34.0386 124.692 33.1958 125.254 32.4232C125.78 31.6857 126.448 31.0535 126.729 31.0535C127.01 31.0535 127.888 31.3696 128.66 31.7559C129.433 32.1422 130.521 32.4583 131.119 32.4583Z" fill="url(#paint2_linear_311_254)"/>
<path d="M128.133 37.8665C128.309 37.7963 129.187 37.6207 130.065 37.4451C130.943 37.2695 133.612 37.1642 136.035 37.2344C138.458 37.3046 141.057 37.4802 141.83 37.6909C142.602 37.8665 143.621 38.1124 144.112 38.2177C144.604 38.3231 145.306 38.5338 145.693 38.6391C146.079 38.7796 147.835 39.5522 149.556 40.4302C151.276 41.273 153.735 42.7831 154.999 43.7664C156.263 44.7497 157.738 46.0491 158.335 46.6461C158.932 47.2782 159.951 48.4371 160.618 49.2799C161.285 50.1228 162.198 51.3519 162.62 52.0543C163.041 52.7918 163.673 53.8102 163.989 54.4072C164.305 55.0042 165.008 56.725 165.57 58.2702C166.097 59.8154 166.623 61.5362 166.729 62.1332C166.834 62.7302 167.01 63.5731 167.15 64.0647C167.255 64.5564 167.326 66.9795 167.326 69.508C167.326 73.055 167.15 74.6704 166.588 76.7073C166.202 78.1471 165.816 79.4816 165.745 79.6923C165.675 79.903 165.535 80.3596 165.359 80.7459C165.219 81.1322 164.657 82.3262 164.165 83.3797C163.638 84.4333 162.76 86.0136 162.163 86.8915C161.601 87.7695 160.899 88.7528 160.618 89.104C160.337 89.4903 159.213 90.6492 158.16 91.773C157.071 92.8616 155.35 94.4068 154.297 95.1794C153.243 95.9872 151.031 97.2865 149.38 98.0943C147.73 98.902 146.079 99.6395 145.693 99.7097C145.306 99.7799 144.99 99.8502 144.99 99.8853C144.99 99.9204 144.744 99.9906 144.464 100.096C144.183 100.166 142.989 100.447 141.83 100.728C140.46 101.044 138.072 101.185 134.982 101.114C132.383 101.079 129.784 100.904 129.187 100.763C128.59 100.623 127.958 100.482 127.782 100.447C127.607 100.412 126.553 100.096 125.5 99.7448C124.446 99.3936 122.55 98.5859 121.285 97.9889C120.021 97.3568 118.546 96.5491 117.949 96.1979C117.352 95.8116 115.877 94.7229 114.613 93.7045C113.349 92.7212 111.874 91.3164 111.312 90.5438C110.715 89.8064 110.188 89.104 110.082 88.9986C109.942 88.8933 109.38 88.1207 108.783 87.2427C108.186 86.3648 107.062 84.2928 106.255 82.572C105.447 80.8863 104.604 78.7792 104.393 77.8311C104.183 76.918 103.937 75.8644 103.867 75.4781C103.761 75.0918 103.586 73.8978 103.445 72.8443C103.34 71.7907 103.234 70.105 103.234 69.1569C103.234 68.1735 103.34 66.523 103.48 65.4694C103.586 64.4159 103.761 63.1868 103.867 62.7302C103.972 62.3088 104.183 61.6064 104.288 61.1499C104.393 60.7285 104.534 60.1315 104.604 59.8505L104.604 59.8505C104.674 59.5696 104.744 59.2886 104.744 59.2184C104.78 59.1833 104.85 59.0428 104.885 58.8672C104.955 58.7267 105.131 58.3053 105.271 57.919C105.412 57.5327 106.009 56.1982 106.641 54.934C107.273 53.6697 108.221 51.9489 108.783 51.071C109.38 50.193 111.031 48.2966 112.471 46.8217C113.946 45.3467 116.334 43.345 117.773 42.3617C119.213 41.3784 120.969 40.3599 121.636 40.079C122.304 39.798 123.182 39.4468 123.568 39.3064C123.954 39.1308 124.341 38.9903 124.446 38.9552C124.551 38.9201 124.867 38.8147 125.148 38.6742C125.429 38.5689 126.132 38.3582 126.729 38.2177C127.326 38.0772 127.958 37.9368 128.133 37.8665Z" fill="white"/>
<path d="M126.026 41.2382C126.799 40.9573 128.309 40.571 129.362 40.3251C130.592 40.0442 133.085 39.9037 136.211 39.974C140.671 40.0793 141.443 40.1847 144.463 41.2031C146.29 41.8352 148.818 42.9239 150.082 43.6614C151.347 44.3988 153.313 45.8036 154.472 46.7518C155.631 47.7351 157.457 49.6666 158.546 51.1064C159.67 52.5463 161.11 54.8641 161.812 56.2688C162.514 57.6384 163.392 59.9562 163.779 61.3258C164.2 62.7305 164.586 65.54 164.727 67.5769C164.867 70.1054 164.762 72.2125 164.376 74.2493C164.095 75.8999 163.357 78.4986 162.725 80.0438C162.128 81.589 160.934 83.8717 160.126 85.136C159.283 86.4002 157.844 88.2615 156.895 89.315C155.947 90.3335 154.226 91.9138 153.067 92.7917C151.908 93.6697 149.696 94.9691 148.151 95.7065C146.606 96.444 144.077 97.3922 142.532 97.8136C140.495 98.3404 138.599 98.5511 135.684 98.5511C132.734 98.5862 130.837 98.3755 128.66 97.8488C127.009 97.4625 124.797 96.7601 123.743 96.3036C122.69 95.847 120.653 94.7232 119.248 93.8102C117.879 92.8971 115.807 91.2465 114.683 90.1579C113.559 89.0341 111.979 87.1026 111.101 85.8383C110.258 84.5741 109.134 82.6075 108.572 81.4486C108.045 80.2897 107.273 78.0772 106.887 76.532C106.5 74.9868 106.079 72.3881 105.973 70.7375C105.833 68.7006 105.938 66.6989 106.325 64.5216C106.641 62.7305 107.273 60.202 107.765 58.9027C108.256 57.5682 109.345 55.3908 110.153 54.0564C110.925 52.7219 112.716 50.4392 114.086 48.9993C115.42 47.5946 117.422 45.8387 118.476 45.1012C119.529 44.3988 121.355 43.3102 122.514 42.7483C123.673 42.1513 125.254 41.484 126.026 41.2382Z" fill="url(#paint3_linear_311_254)"/>
<defs>
<linearGradient id="paint0_linear_311_254" x1="155.928" y1="101.635" x2="155.928" y2="142.665" gradientUnits="userSpaceOnUse">
<stop stop-color="#3B8E3E"/>
<stop offset="1" stop-color="#27622E"/>
</linearGradient>
<linearGradient id="paint1_linear_311_254" x1="114.866" y1="101.641" x2="114.866" y2="143.123" gradientUnits="userSpaceOnUse">
<stop stop-color="#3B8E3E"/>
<stop offset="1" stop-color="#27622E"/>
</linearGradient>
<linearGradient id="paint2_linear_311_254" x1="135.333" y1="30" x2="135.333" y2="108.314" gradientUnits="userSpaceOnUse">
<stop stop-color="#C68A58"/>
<stop offset="1" stop-color="#70332E"/>
</linearGradient>
<linearGradient id="paint3_linear_311_254" x1="135.35" y1="39.9561" x2="135.35" y2="98.5549" gradientUnits="userSpaceOnUse">
<stop stop-color="#C68A58"/>
<stop offset="1" stop-color="#70332E"/>
</linearGradient>
</defs>
</svg>

<svg width="270" height="175" fill="none" xmlns="http://www.w3.org/2000/svg"><path fill="#fff" d="M0 0h270v175H0z"/><path d="M154.402 104.169c.421-.913.913-1.861 1.053-2.072v-.035c.141-.211.878-.421 1.581-.421 1.264-.035 1.334.035 1.791 1.65.281.913.597 1.826.737 2.037.141.176 1.089 2.81 2.107 5.795 1.054 2.985 2.213 6.391 2.634 7.55.386 1.159.808 2.248.913 2.458.141.176.492 1.229.808 2.283.351 1.054.808 2.493 1.089 3.161.28.667.983 2.633 1.615 4.389.632 1.721 1.334 3.828 1.615 4.636.246.843.352 1.44.176 1.37-.14-.106-1.756-.562-3.582-1.089a223.284 223.284 0 0 0-7.024-1.756l-.843 1.229c-.456.667-1.791 2.564-2.914 4.214-1.124 1.651-2.178 3.056-2.389 3.091-.21.07-.561-.492-.807-1.229-.281-.738-.773-2.213-1.124-3.266-.351-1.054-1.229-3.512-1.932-5.444-.702-1.931-1.58-4.389-1.931-5.443a286.933 286.933 0 0 0-2.107-5.97 751.153 751.153 0 0 1-2.88-8.077c-.772-2.213-1.51-4.355-1.615-4.706-.246-.667-.211-.667.878-.105.632.316 1.475.597 1.861.597.386 0 1.089-.422 1.545-.984.457-.527 1.229-1.369 2.494-2.879l1.931.561c1.054.316 2.283.457 2.704.352.527-.141 1.089-.843 1.616-1.897Z" fill="url(#a)"/><path d="M111.417 104.451c.316-1.054.737-2.143.878-2.353v-.035c.14-.211.878-.422 1.615-.422 1.335 0 1.44.07 1.932 1.475.281.843.913 1.896 1.405 2.388.913.878.913.878 5.478-.175l1.545 1.826c.948 1.088 1.862 1.861 2.283 1.861.386 0 1.159-.246 1.756-.527.983-.491 1.053-.491 1.053.07 0 .352-.105.773-.245.949-.141.175-.597 1.264-1.019 2.458a602.089 602.089 0 0 1-1.861 5.478c-.632 1.826-2.002 5.795-3.091 8.78-1.053 2.985-2.036 5.759-2.212 6.146-.176.386-1.054 2.914-1.967 5.618-.913 2.705-1.72 4.987-1.826 5.093-.07.105-.21 0-.281-.176-.07-.211-1.088-1.686-2.247-3.336-1.124-1.651-2.529-3.582-3.056-4.32-.667-.878-1.159-1.229-1.51-1.088-.281.105-1.931.597-3.687 1.088a139.577 139.577 0 0 0-4.46 1.264c-.738.246-1.405.352-1.51.246-.141-.105.456-2.142 1.264-4.565.808-2.423 1.651-4.881 1.896-5.443.246-.562.949-2.494 1.51-4.215.597-1.72 1.827-5.232 2.705-7.726a479.497 479.497 0 0 1 2.317-6.496c.387-1.054.984-2.81 1.335-3.863Z" fill="url(#b)"/><path d="M131.119 32.458c.702 0 1.474-.386 2.388-1.229h-.036c.738-.667 1.546-1.229 1.756-1.229.246 0 1.124.562 1.932 1.23.948.772 1.896 1.228 2.458 1.228.562 0 1.616-.316 2.388-.702.773-.386 1.616-.703 1.826-.703.246 0 1.194.843 3.688 3.688l2.247-.492c1.23-.245 2.459-.386 2.669-.245.246.105.843 1.088 1.335 2.142.597 1.334 1.124 2.001 1.651 2.107.456.105 1.685.21 4.635.351l.422 2.107c.281 1.264.702 2.283 1.088 2.564.351.245 1.019.526 1.51.632.492.105 1.335.28 1.932.421.983.246 1.053.386 1.159 2.178.035 1.053.14 2.282.246 2.704.105.562.807 1.123 2.212 1.79 1.686.808 2.002 1.124 1.932 1.827-.036.492-.176 1.65-.562 4.39l3.792 3.3-2.107 4.285.703 1.23c.386.702 1.053 1.615 1.51 2.001.421.421.772.878.772 1.018 0 .176-.632 1.124-1.404 2.108-.808 1.018-1.44 2.107-1.405 2.388 0 .28.386 1.264.878 2.212.492.913.843 1.861.808 2.142-.071.246-.808 1.019-1.686 1.686-1.475 1.124-1.58 1.3-1.545 2.774.035.843.175 2.107.316 2.775.246 1.194.211 1.229-1.264 1.86-.843.352-1.897.984-2.353 1.406-.668.632-.773 1.123-.773 2.95 0 1.966-.105 2.247-.773 2.528-.456.21-1.404.421-2.107.527-.737.14-1.65.562-2.037.983-.351.457-.737 1.51-.842 2.388-.106.878-.387 1.791-.633 2.002-.304.304-.983.374-2.036.21-1.159-.175-1.827-.07-2.529.352-.562.316-1.334 1.334-1.721 2.247-.421.949-.948 1.791-1.159 1.932-.21.105-1.159 0-2.142-.316-.948-.281-2.107-.422-2.528-.316-.457.105-1.335.913-1.932 1.756-.632.878-1.299 1.65-1.51 1.756-.211.105-1.089-.211-2.002-.703-.948-.456-2.037-.843-2.458-.843-.457-.035-1.51.527-2.388 1.229-.878.668-1.791 1.23-2.002 1.23-.246 0-1.124-.562-1.931-1.23-.949-.772-1.897-1.229-2.459-1.229s-1.721.422-4.214 1.932l-1.791-2.002c-1.018-1.124-2.072-2.037-2.353-2.037-.281 0-1.37.246-2.353.527-1.475.421-1.931.421-2.177.07-.176-.21-.667-1.194-1.124-2.142-.527-1.089-1.159-1.861-1.721-2.037-.491-.175-1.51-.246-2.283-.175-.772.105-1.65.07-1.931-.106-.281-.14-.632-1.053-.773-2.072-.175-1.053-.562-2.072-.983-2.493-.386-.386-1.299-.808-2.002-.913-.737-.106-1.685-.316-2.107-.527-.702-.28-.808-.562-.737-2.177.035-.984-.035-2.178-.176-2.634-.176-.492-.913-1.089-2.177-1.65-1.054-.492-2.002-1.02-2.107-1.23-.106-.21.07-1.159.351-2.107.281-.983.421-2.037.316-2.388-.141-.316-1.019-1.335-3.828-3.828l1.018-1.896c.703-1.3.949-2.178.808-2.775-.105-.491-.772-1.545-1.44-2.352C96.562 70 96 69.263 96 69.156c0-.106.632-.913 1.405-1.826.843-.984 1.404-2.037 1.404-2.564 0-.492-.386-1.51-.877-2.283-.457-.772-.878-1.615-.878-1.826 0-.246.667-.948 1.51-1.545.807-.597 1.65-1.405 1.896-1.826.316-.597.316-1.194-.105-2.774-.281-1.124-.422-2.213-.316-2.389.105-.175 1.053-.737 2.107-1.229 1.053-.491 2.037-1.159 2.177-1.475.141-.35.246-1.58.281-4.81l2.107-.492c1.159-.246 2.318-.668 2.564-.878.246-.246.597-.984.772-1.651.141-.667.387-1.65.492-2.177.211-.948.316-.984 2.318-.984 1.159 0 2.423-.175 2.809-.35.387-.176 1.089-1.23 1.581-2.284.491-1.088 1.123-1.931 1.404-1.931.281 0 1.3.21 2.248.456 1.405.352 1.896.352 2.564-.035.456-.245 1.229-1.088 1.791-1.86.526-.738 1.194-1.37 1.475-1.37.281 0 1.159.316 1.931.702.773.386 1.861.702 2.459.702Z" fill="url(#c)"/><path d="M128.133 37.867c.176-.07 1.054-.246 1.932-.422.878-.175 3.547-.28 5.97-.21 2.423.07 5.022.245 5.795.456.772.175 1.791.421 2.282.527.492.105 1.194.316 1.581.421.386.14 2.142.913 3.863 1.791 1.72.843 4.179 2.353 5.443 3.336 1.264.984 2.739 2.283 3.336 2.88a47.504 47.504 0 0 1 2.283 2.634c.667.843 1.58 2.072 2.002 2.774.421.738 1.053 1.756 1.369 2.353.316.597 1.019 2.318 1.581 3.863.527 1.545 1.053 3.266 1.159 3.863.105.597.281 1.44.421 1.932.105.491.176 2.915.176 5.443 0 3.547-.176 5.162-.738 7.2a94.017 94.017 0 0 1-.843 2.984c-.07.211-.21.668-.386 1.054-.14.386-.702 1.58-1.194 2.634-.527 1.053-1.405 2.634-2.002 3.511-.562.878-1.264 1.862-1.545 2.213-.281.386-1.405 1.545-2.458 2.669-1.089 1.089-2.81 2.634-3.863 3.406-1.054.808-3.266 2.108-4.917 2.915-1.65.808-3.301 1.546-3.687 1.616-.387.07-.703.14-.703.175 0 .035-.246.106-.526.211-.281.07-1.475.351-2.634.632-1.37.316-3.758.457-6.848.386-2.599-.035-5.198-.21-5.795-.351a65.205 65.205 0 0 0-1.405-.316c-.175-.035-1.229-.351-2.282-.702-1.054-.351-2.95-1.16-4.215-1.756a68.848 68.848 0 0 1-3.336-1.791c-.597-.386-2.072-1.475-3.336-2.493-1.264-.984-2.739-2.389-3.301-3.161-.597-.738-1.124-1.44-1.23-1.545-.14-.106-.702-.878-1.299-1.756s-1.721-2.95-2.528-4.671c-.808-1.686-1.651-3.793-1.862-4.74-.21-.914-.456-1.968-.526-2.354-.106-.386-.281-1.58-.422-2.634-.105-1.053-.211-2.739-.211-3.687 0-.983.106-2.634.246-3.688.106-1.053.281-2.282.387-2.739.105-.421.316-1.124.421-1.58.105-.422.246-1.018.316-1.3.07-.28.14-.561.14-.632.036-.035.106-.175.141-.35.07-.141.246-.563.386-.949.141-.386.738-1.72 1.37-2.985.632-1.264 1.58-2.985 2.142-3.863.597-.878 2.248-2.774 3.688-4.25 1.475-1.474 3.863-3.476 5.302-4.46 1.44-.983 3.196-2.001 3.863-2.282a55.14 55.14 0 0 1 1.932-.773c.386-.175.773-.316.878-.35.105-.036.421-.141.702-.282.281-.105.984-.316 1.581-.456s1.229-.281 1.404-.352Z" fill="#fff"/><path d="M126.026 41.238c.773-.28 2.283-.667 3.336-.913 1.23-.28 3.723-.421 6.849-.351 4.46.105 5.232.21 8.252 1.23 1.827.631 4.355 1.72 5.619 2.457 1.265.738 3.231 2.143 4.39 3.09 1.159.984 2.985 2.916 4.074 4.355 1.124 1.44 2.564 3.758 3.266 5.163.702 1.37 1.58 3.687 1.967 5.057.421 1.404.807 4.214.948 6.25.14 2.53.035 4.637-.351 6.673-.281 1.65-1.019 4.25-1.651 5.795-.597 1.545-1.791 3.828-2.599 5.092-.843 1.264-2.282 3.126-3.231 4.179-.948 1.019-2.669 2.599-3.828 3.477-1.159.878-3.371 2.177-4.916 2.915-1.545.737-4.074 1.685-5.619 2.107-2.037.526-3.933.737-6.848.737-2.95.035-4.847-.175-7.024-.702-1.651-.386-3.863-1.089-4.917-1.545-1.053-.457-3.09-1.58-4.495-2.494-1.369-.913-3.441-2.564-4.565-3.652-1.124-1.124-2.704-3.055-3.582-4.32-.843-1.264-1.967-3.23-2.529-4.39-.527-1.158-1.299-3.37-1.685-4.916-.387-1.545-.808-4.144-.914-5.794-.14-2.037-.035-4.04.352-6.216.316-1.792.948-4.32 1.44-5.62.491-1.334 1.58-3.511 2.388-4.846.772-1.334 2.563-3.617 3.933-5.057 1.334-1.404 3.336-3.16 4.39-3.898 1.053-.702 2.879-1.79 4.038-2.353 1.159-.597 2.74-1.264 3.512-1.51Z" fill="url(#d)"/><defs><linearGradient id="a" x1="155.928" y1="101.635" x2="155.928" y2="142.665" gradientUnits="userSpaceOnUse"><stop stop-color="#3B8E3E"/><stop offset="1" stop-color="#27622E"/></linearGradient><linearGradient id="b" x1="114.866" y1="101.641" x2="114.866" y2="143.123" gradientUnits="userSpaceOnUse"><stop stop-color="#3B8E3E"/><stop offset="1" stop-color="#27622E"/></linearGradient><linearGradient id="c" x1="135.333" y1="30" x2="135.333" y2="108.314" gradientUnits="userSpaceOnUse"><stop stop-color="#C68A58"/><stop offset="1" stop-color="#70332E"/></linearGradient><linearGradient id="d" x1="135.35" y1="39.956" x2="135.35" y2="98.555" gradientUnits="userSpaceOnUse"><stop stop-color="#C68A58"/><stop offset="1" stop-color="#70332E"/></linearGradient></defs></svg>
